qml/tweetian-harmattan/Image/home.svg

<?xml version="1.0" encoding="UTF-8" standalone="no"?>
<!-- Generator: Adobe Illustrator 15.0.0, SVG Export Plug-In . SVG Version: 6.00 Build 0)  -->

<svg
   xmlns:dc="http://purl.org/dc/elements/1.1/"
   xmlns:cc="http://creativecommons.org/ns#"
   xmlns:rdf="http://www.w3.org/1999/02/22-rdf-syntax-ns#"
   xmlns:svg="http://www.w3.org/2000/svg"
   xmlns="http://www.w3.org/2000/svg"
   xmlns:sodipodi="http://sodipodi.sourceforge.net/DTD/sodipodi-0.dtd"
   xmlns:inkscape="http://www.inkscape.org/namespaces/inkscape"
   version="1.1"
   x="0px"
   y="0px"
   width="40"
   height="40"
   viewBox="0 0 40 40"
   enable-background="new 0 0 30 30"
   xml:space="preserve"
   id="svg2"
   inkscape:version="0.48.2 r9819"
   sodipodi:docname="home.svg"
   inkscape:export-filename="C:\Users\Stephan\Desktop\icons\home.png"
   inkscape:export-xdpi="90"
   inkscape:export-ydpi="90"><metadata
   id="metadata19"><rdf:RDF><cc:Work
       rdf:about=""><dc:format>image/svg+xml</dc:format><dc:type
         rdf:resource="http://purl.org/dc/dcmitype/StillImage" /><dc:title /></cc:Work></rdf:RDF></metadata><defs
   id="defs17" /><sodipodi:namedview
   pagecolor="#0000ff"
   bordercolor="#666666"
   borderopacity="1"
   objecttolerance="10"
   gridtolerance="10"
   guidetolerance="10"
   inkscape:pageopacity="0"
   inkscape:pageshadow="2"
   inkscape:window-width="2560"
   inkscape:window-height="1388"
   id="namedview15"
   showgrid="true"
   inkscape:snap-bbox="true"
   inkscape:snap-global="true"
   inkscape:zoom="8"
   inkscape:cx="-32.619547"
   inkscape:cy="57.906803"
   inkscape:window-x="-8"
   inkscape:window-y="-8"
   inkscape:window-maximized="1"
   inkscape:current-layer="svg2"><inkscape:grid
     type="xygrid"
     id="grid3002"
     empspacing="5"
     visible="true"
     enabled="true"
     snapvisiblegridlinesonly="true" /></sodipodi:namedview>


<rect
   style="opacity:0.75;fill:#000000;fill-opacity:1;stroke:none"
   id="rect3780"
   width="0"
   height="0"
   x="0"
   y="10" /><g
   id="g2986"
   transform="matrix(1.1437763,0,0,1.1437763,-0.60137754,-1.9570653)"><path
     id="rect3000"
     d="m 18.03125,10 -10.8125,10.8125 0,1.1875 0,7.8125 C 7.21875,30.472956 7.777044,31 8.4375,31 l 6.4375,0 0,-0.34375 0,-5.65625 0,-1.15625 C 14.875,23.647881 15.022881,23.5 15.21875,23.5 l 5.5625,0 c 0.195869,0 0.34375,0.147881 0.34375,0.34375 l 0,1.15625 0,5.65625 0,0.34375 6.5,0 c 0.660456,0 1.1875,-0.527044 1.1875,-1.1875 l 0,-7.8125 0,-1.1875 L 18.03125,10 z"
     style="opacity:0.5;fill:#ffffff;fill-opacity:1;stroke:none"
     inkscape:connector-curvature="0" /><rect
     y="9.6887836"
     x="7.2398462"
     height="7.4246206"
     width="3.5999999"
     id="rect3759"
     style="opacity:0.75;fill:#ffffff;fill-opacity:1;stroke:none" /><path
     inkscape:connector-curvature="0"
     id="path3779"
     d="m 2.9273444,21.683594 1.5375006,1.575 13.575,-13.5698112 13.481249,13.6073112 1.575,-1.650001 L 18.039845,6.7023437 z"
     style="fill:#ffffff;fill-opacity:1;stroke:#ffffff;stroke-width:0.44999999;stroke-linecap:round;stroke-linejoin:round;stroke-miterlimit:4;stroke-opacity:1;stroke-dasharray:none" /></g></svg>

<?xml version="1.0" encoding="UTF-8" standalone="no"?>
<!-- Generator: Adobe Illustrator 15.0.0, SVG Export Plug-In . SVG Version: 6.00 Build 0)  -->

<svg
   xmlns:dc="http://purl.org/dc/elements/1.1/"
   xmlns:cc="http://creativecommons.org/ns#"
   xmlns:rdf="http://www.w3.org/1999/02/22-rdf-syntax-ns#"
   xmlns:svg="http://www.w3.org/2000/svg"
   xmlns="http://www.w3.org/2000/svg"
   xmlns:sodipodi="http://sodipodi.sourceforge.net/DTD/sodipodi-0.dtd"
   xmlns:inkscape="http://www.inkscape.org/namespaces/inkscape"
   version="1.1"
   x="0px"
   y="0px"
   width="36"
   height="36"
   viewBox="0 0 36 36"
   enable-background="new 0 0 30 30"
   xml:space="preserve"
   id="svg2"
   inkscape:version="0.48.2 r9819"
   sodipodi:docname="home.svg"
   inkscape:export-filename="C:\Users\Stephan\Desktop\icons\home.png"
   inkscape:export-xdpi="90"
   inkscape:export-ydpi="90"><metadata
   id="metadata19"><rdf:RDF><cc:Work
       rdf:about=""><dc:format>image/svg+xml</dc:format><dc:type
         rdf:resource="http://purl.org/dc/dcmitype/StillImage" /><dc:title /></cc:Work></rdf:RDF></metadata><defs
   id="defs17" /><sodipodi:namedview
   pagecolor="#0000ff"
   bordercolor="#666666"
   borderopacity="1"
   objecttolerance="10"
   gridtolerance="10"
   guidetolerance="10"
   inkscape:pageopacity="0"
   inkscape:pageshadow="2"
   inkscape:window-width="2560"
   inkscape:window-height="1388"
   id="namedview15"
   showgrid="true"
   inkscape:snap-bbox="true"
   inkscape:snap-global="true"
   inkscape:zoom="22.627417"
   inkscape:cx="0.67460282"
   inkscape:cy="22.50673"
   inkscape:window-x="-8"
   inkscape:window-y="-8"
   inkscape:window-maximized="1"
   inkscape:current-layer="svg2"><inkscape:grid
     type="xygrid"
     id="grid3002"
     empspacing="5"
     visible="true"
     enabled="true"
     snapvisiblegridlinesonly="true" /></sodipodi:namedview>


<rect
   style="opacity:0.75;fill:#000000;fill-opacity:1;stroke:none"
   id="rect3780"
   width="0"
   height="0"
   x="0"
   y="6" /><path
   style="opacity:0.5;fill:#ffffff;fill-opacity:1;stroke:none"
   d="M 18.03125 10 L 7.21875 20.8125 L 7.21875 22 L 7.21875 29.8125 C 7.21875 30.472956 7.777044 31 8.4375 31 L 14.875 31 L 14.875 30.65625 L 14.875 25 L 14.875 23.84375 C 14.875 23.647881 15.022881 23.5 15.21875 23.5 L 20.78125 23.5 C 20.977119 23.5 21.125 23.647881 21.125 23.84375 L 21.125 25 L 21.125 30.65625 L 21.125 31 L 27.625 31 C 28.285456 31 28.8125 30.472956 28.8125 29.8125 L 28.8125 22 L 28.8125 20.8125 L 18.03125 10 z "
   id="rect3000" /><rect
   style="opacity:0.75;fill:#ffffff;fill-opacity:1;stroke:none"
   id="rect3759"
   width="3.5999999"
   height="7.4246206"
   x="7.2281275"
   y="8.5676899" /><path
   style="fill:#ffffff;fill-opacity:1;stroke:#ffffff;stroke-width:0.44999999;stroke-linecap:round;stroke-linejoin:round;stroke-miterlimit:4;stroke-opacity:1;stroke-dasharray:none"
   d="M 2.9156256,20.5625 4.4531262,22.1375 18.028126,8.5676893 31.509375,22.175 33.084375,20.524999 18.028126,5.5812499 z"
   id="path3779"
   inkscape:connector-curvature="0" /></svg>
